Yosa-Max-Dark/actions/22x22/filesaveas.svg

<?xml version="1.0" encoding="UTF-8"?>
<svg id="svg6" version="1.1" viewBox="0 0 22 22" xmlns="http://www.w3.org/2000/svg">
 <defs id="defs3051">
  <style id="current-color-scheme" type="text/css">.ColorScheme-Text {
        color:#dfdfdf;
      }</style>
  <style id="current-color-scheme-6" type="text/css">.ColorScheme-Text {
        color:#dfdfdf;
      }</style>
  <style id="current-color-scheme-5" type="text/css">.ColorScheme-Text {
        color:#dfdfdf;
      }</style>
 </defs>
 <g id="g851">
  <path id="path823" d="m3 3v0.0019531 1 14.998047h1 8.007812v-2h-1.660156-1.6328122-2-1.7148438v-12h2.5722656v3.4277344 0.8574218h6.8554684v-0.8574218-3.4277344h0.251954l2.320312 2.3203125v0.2519531 2.4140625h2v-2.984375-0.6992187h-0.007812l0.007812-0.0097656-3.292969-3.2929688-0.007812 0.0097656v-0.0097656h-0.699219-12z" style="fill:#dfdfdf"/>
  <path id="path845" d="m13 14 4 5 4-5z" style="color-rendering:auto;color:#000000;fill:#dfdfdf;image-rendering:auto;isolation:auto;mix-blend-mode:normal;shape-rendering:auto;solid-color:#000000"/>
 </g>
</svg>

<?xml version="1.0" encoding="UTF-8" standalone="no"?>
<svg
   xmlns:dc="http://purl.org/dc/elements/1.1/"
   xmlns:cc="http://creativecommons.org/ns#"
   xmlns:rdf="http://www.w3.org/1999/02/22-rdf-syntax-ns#"
   xmlns:svg="http://www.w3.org/2000/svg"
   xmlns="http://www.w3.org/2000/svg"
   viewBox="0 0 22 22"
   version="1.1"
   id="svg6">
  <metadata
     id="metadata10">
    <rdf:RDF>
      <cc:Work
         rdf:about="">
        <dc:format>image/svg+xml</dc:format>
        <dc:type
           rdf:resource="http://purl.org/dc/dcmitype/StillImage" />
        <dc:title></dc:title>
      </cc:Work>
    </rdf:RDF>
  </metadata>
  <defs
     id="defs3051">
    <style
       type="text/css"
       id="current-color-scheme">
      .ColorScheme-Text {
        color:#dfdfdf;
      }
      </style>
    <style
       id="current-color-scheme-6"
       type="text/css">
      .ColorScheme-Text {
        color:#dfdfdf;
      }
      </style>
    <style
       id="current-color-scheme-5"
       type="text/css">
      .ColorScheme-Text {
        color:#dfdfdf;
      }
      </style>
  </defs>
  <g
     id="g851">
    <path
       style="fill:#dfdfdf;fill-opacity:1;stroke:none;stroke-width:1"
       d="M 3 3 L 3 3.0019531 L 3 4.0019531 L 3 19 L 4 19 L 12.007812 19 L 12.007812 17 L 10.347656 17 L 8.7148438 17 L 6.7148438 17 L 5 17 L 5 5 L 7.5722656 5 L 7.5722656 8.4277344 L 7.5722656 9.2851562 L 14.427734 9.2851562 L 14.427734 8.4277344 L 14.427734 5 L 14.679688 5 L 17 7.3203125 L 17 7.5722656 L 17 9.9863281 L 19 9.9863281 L 19 7.0019531 L 19 6.3027344 L 18.992188 6.3027344 L 19 6.2929688 L 15.707031 3 L 15.699219 3.0097656 L 15.699219 3 L 15 3 L 3 3 z "
       id="path823" />
    <path
       style="color:#000000;clip-rule:nonzero;display:inline;overflow:visible;visibility:visible;opacity:1;isolation:auto;mix-blend-mode:normal;color-interpolation:sRGB;color-interpolation-filters:linearRGB;solid-color:#000000;solid-opacity:1;fill:#dfdfdf;fill-opacity:1;fill-rule:nonzero;stroke:none;stroke-width:1;stroke-linecap:butt;stroke-linejoin:miter;stroke-miterlimit:4;stroke-dasharray:none;stroke-dashoffset:0;stroke-opacity:1;color-rendering:auto;image-rendering:auto;shape-rendering:auto;text-rendering:auto;enable-background:accumulate"
       d="m 13,14 4,5 4,-5 z"
       id="path845" />
  </g>
</svg>
